X:111
T:Miss Hamilton's Jigg
M:6/8
L:1/8
B:Thompson's Compleat Collection of 200 Favourite Country Dances, vol. 1 (London, 1757)
Z:Transcribed and edited by Fynnian Titford-Mock, 2007
Z:abc's:AK/Fiddler's Companion
K:D
A|FDA d2f|(ea)c d2f|(ea)c (df)B|ce^G A2A|FDA d2f|(ea)c d2f|(e^g)a (cd)B|(A3 A2):|
|:A|^cAc efg|AGBc d2f|geb gfe|df^A B2=A|FDF AFA|dAd (f/g/a)g|fed ABc|(d3 d2):|

